flaticon/household/bookcase.svg

<svg xmlns="http://www.w3.org/2000/svg" width="32" height="32" viewBox="0 0 24 24">
    <path d="M 6.800781 22.800781 L 22.800781 22.800781 L 22.800781 1.199219 L 1.199219 1.199219 L 1.199219 22.800781 Z M 11.601562 22 L 6.800781 22 L 6.800781 18 L 11.601562 18 Z M 6.800781 12.398438 L 11.601562 12.398438 L 11.601562 17.199219 L 6.800781 17.199219 Z M 6.800781 6.800781 L 11.601562 6.800781 L 11.601562 8 L 8 8 L 8 11.601562 L 6.800781 11.601562 Z M 17.199219 11.601562 L 12.398438 11.601562 L 12.398438 6.800781 L 17.199219 6.800781 Z M 20.800781 17.199219 L 20.398438 17.199219 L 20.398438 14.398438 L 20.800781 14.398438 Z M 19.601562 17.199219 L 19.199219 17.199219 L 19.199219 14.398438 L 19.601562 14.398438 Z M 18.398438 17.199219 L 18 17.199219 L 18 14.398438 L 18.398438 14.398438 Z M 17.199219 13.601562 L 17.199219 17.199219 L 12.398438 17.199219 L 12.398438 12.398438 L 17.199219 12.398438 Z M 9.199219 11.601562 L 8.800781 11.601562 L 8.800781 8.800781 L 9.199219 8.800781 Z M 10.398438 11.601562 L 10 11.601562 L 10 8.800781 L 10.398438 8.800781 Z M 11.601562 11.601562 L 11.199219 11.601562 L 11.199219 8.800781 L 11.601562 8.800781 Z M 17.199219 22 L 12.398438 22 L 12.398438 18 L 17.199219 18 Z M 22 22 L 18 22 L 18 18 L 22 18 Z M 22 17.199219 L 21.601562 17.199219 L 21.601562 13.601562 L 18 13.601562 L 18 12.398438 L 22 12.398438 Z M 22 11.601562 L 18 11.601562 L 18 6.800781 L 22 6.800781 Z M 18 2 L 22 2 L 22 6 L 18 6 Z M 12.398438 2 L 17.199219 2 L 17.199219 6 L 12.398438 6 Z M 6.800781 2 L 11.601562 2 L 11.601562 6 L 6.800781 6 Z M 2 2 L 6 2 L 6 6 L 2 6 Z M 2 6.800781 L 6 6.800781 L 6 11.601562 L 2 11.601562 Z M 2 12.398438 L 6 12.398438 L 6 17.199219 L 2 17.199219 Z M 2 22 L 2 18 L 6 18 L 6 22 Z M 2 22"/>
    <path d="M 0 0 L 0 24 L 24 24 L 24 0 Z M 23.199219 23.199219 L 0.800781 23.199219 L 0.800781 0.800781 L 23.199219 0.800781 Z M 23.199219 23.199219"/>
</svg>

<svg xmlns="http://www.w3.org/2000/svg" width="32" height="32" viewBox="0 0 24 24">
    <path d="M6.8 22.8h16V1.2H1.2v21.6zm4.802-.8H6.8v-4h4.8zM6.8 12.398h4.8V17.2h-4.8zm0-5.597h4.8V8H8v3.602H6.8zm10.398 4.8h-4.8v-4.8h4.8zm3.602 5.598h-.403v-2.8h.403zm-1.2 0H19.2v-2.8h.403zm-1.203 0H18v-2.8h.398zM17.2 13.602v3.597h-4.8v-4.8h4.8zm-8-2h-.398V8.8h.398zm1.2 0H10V8.8h.398zm1.203 0h-.403V8.8h.403zM17.199 22h-4.8v-4h4.8zM22 22h-4v-4h4zm0-4.8h-.398v-3.598H18v-1.204h4zm0-5.598h-4V6.8h4zM18 2h4v4h-4zm-5.602 0H17.2v4h-4.8zM6.801 2h4.8v4h-4.8zM2 2h4v4H2zm0 4.8h4v4.802H2zm0 5.598h4V17.2H2zM2 22v-4h4v4zm0 0"/>
    <path d="M0 0v24h24V0zm23.2 23.2H.8V.8h22.4zm0 0"/>
</svg>
